src/assets/icons/svg/phone.svg

<?xml version="1.0" standalone="no"?><!DOCTYPE svg PUBLIC "-//W3C//DTD SVG 1.1//EN" "http://www.w3.org/Graphics/SVG/1.1/DTD/svg11.dtd"><svg t="1567417214476" class="icon" viewBox="0 0 1024 1024" version="1.1" xmlns="http://www.w3.org/2000/svg" p-id="2266" xmlns:xlink="http://www.w3.org/1999/xlink" width="200" height="200"><defs><style type="text/css"></style></defs><path d="M761.503029 2.90619 242.121921 2.90619c-32.405037 0-58.932204 26.060539-58.932204 58.527998l0 902.302287c0 32.156374 26.217105 58.216913 58.932204 58.216913l519.381108 0c32.344662 0 58.591443-26.060539 58.591443-58.216913L820.094472 61.123103C820.094472 28.966729 793.847691 2.90619 761.503029 2.90619M452.878996 61.123103l98.147344 0c6.780427 0 12.31549 5.536087 12.31549 12.253068 0 6.748704-5.535063 12.253068-12.31549 12.253068l-98.147344 0c-6.779404 0-12.345166-5.504364-12.345166-12.253068C440.532807 66.659189 446.099592 61.123103 452.878996 61.123103M501.641583 980.593398c-29.636994 0-53.987588-23.946388-53.987588-53.677527 0-29.356608 24.039509-53.614082 53.987588-53.614082 29.91738 0 53.987588 23.883967 53.987588 53.614082C555.629171 956.647009 531.559986 980.593398 501.641583 980.593398M766.35657 803.142893c0 16.23373-13.186324 29.107945-29.233811 29.107945l-470.618521 0c-16.35755 0-29.325909-13.186324-29.325909-29.107945L237.178329 163.500794c0-16.232706 13.279445-29.138644 29.325909-29.138644l470.246037 0c16.420995 0 29.357632 13.1853 29.357632 29.138644l0 639.642099L766.35657 803.142893zM766.35657 803.142893" p-id="2267"></path></svg>

<svg xmlns="http://www.w3.org/2000/svg" width="200" height="200" class="icon" viewBox="0 0 1024 1024"><path d="M761.503 2.906H242.122c-32.405 0-58.932 26.06-58.932 58.528v902.302c0 32.157 26.217 58.217 58.932 58.217h519.381c32.345 0 58.591-26.06 58.591-58.217V61.123c0-32.156-26.246-58.217-58.591-58.217M452.879 61.123h98.147c6.78 0 12.316 5.536 12.316 12.253 0 6.749-5.535 12.253-12.316 12.253H452.88c-6.78 0-12.345-5.504-12.345-12.253-.001-6.717 5.566-12.253 12.345-12.253m48.763 919.47c-29.637 0-53.988-23.946-53.988-53.677 0-29.357 24.04-53.614 53.988-53.614 29.917 0 53.987 23.884 53.987 53.614 0 29.731-24.069 53.677-53.987 53.677m264.715-177.45c0 16.234-13.187 29.108-29.234 29.108h-470.62c-16.357 0-29.326-13.186-29.326-29.108V163.5c0-16.233 13.28-29.139 29.326-29.139H736.75c16.421 0 29.358 13.185 29.358 29.139v639.642h.249zm0 0"/></svg>
